assets/images/vector/icons/ratio_square_icon.svg

<svg fill="none" height="52" viewBox="0 0 52 52" width="52" xmlns="http://www.w3.org/2000/svg"><g stroke="#111" stroke-linecap="round" stroke-linejoin="round" stroke-width="10"><path d="m11.666 46.6667h28.3333c3.6819 0 6.6667-2.9847 6.6667-6.6666v-28.3333c0-3.68195-2.9848-6.66672-6.6667-6.66672h-28.3333c-3.68188 0-6.66665 2.98477-6.66665 6.66672v28.3333c0 3.6819 2.98477 6.6666 6.66665 6.6666z"/><path d="m38.332 23.3335v-10h-10"/><path d="m23.332 38.3335h-10v-10"/></g></svg>

<svg width="52" height="52" viewBox="0 0 52 52" fill="none" xmlns="http://www.w3.org/2000/svg">
<path d="M11.666 46.6667L39.9993 46.6667C43.6812 46.6667 46.666 43.682 46.666 40.0001L46.666 11.6668C46.666 7.98485 43.6812 5.00008 39.9993 5.00008L11.666 5.00008C7.98412 5.00008 4.99935 7.98485 4.99935 11.6668L4.99935 40.0001C4.99935 43.682 7.98412 46.6667 11.666 46.6667Z" stroke="#111111" stroke-width="10" stroke-linecap="round" stroke-linejoin="round"/>
<path d="M38.332 23.3335V13.3335H28.332" stroke="#111111" stroke-width="10" stroke-linecap="round" stroke-linejoin="round"/>
<path d="M23.332 38.3335H13.332V28.3335" stroke="#111111" stroke-width="10" stroke-linecap="round" stroke-linejoin="round"/>
</svg>
